X:1
T:Polsk
T:(Totakt-pols, nr. MN-27)
S:efter Mads Nielsen
R:Totakt-pols
O:Tyvkjer Mark, Danmark
N:Från nothäftet "Totakt-pols" av Åke Persson, Ethel Wieslander m fl.
M:2/4
L:1/8
Q:1/4=112
K:D
|: D1/2E1/2F1/2G1/2 A1/2B1/2c1/2d1/2 | ef d2 | ge1/2g1/2 fd | e1/2f1/2e1/2c1/2 AA | D1/2E1/2F1/2G1/2 A1/2B1/2c1/2d1/2 | ef d2 | fe1/2e1/2 cc | d2 z2 :|
|: gefd | e1/2f1/2e1/2c1/2 AA | GBFA | E1/2D1/2E1/2F1/2 EE | D1/2E1/2F1/2G1/2 A1/2B1/2c1/2d1/2 | ef d2 | fe1/2e1/2 cc | d2 z2 :|

